HTML/img/Semaphore/Semaphore_Charlie.svg

<?xml version="1.0" encoding="UTF-8" standalone="no"?>
<!-- Created with Inkscape (http://www.inkscape.org/) -->
<svg
   xmlns:dc="http://purl.org/dc/elements/1.1/"
   xmlns:cc="http://web.resource.org/cc/"
   xmlns:rdf="http://www.w3.org/1999/02/22-rdf-syntax-ns#"
   xmlns:svg="http://www.w3.org/2000/svg"
   xmlns="http://www.w3.org/2000/svg"
   xmlns:sodipodi="http://inkscape.sourceforge.net/DTD/sodipodi-0.dtd"
   xmlns:inkscape="http://www.inkscape.org/namespaces/inkscape"
   width="600"
   height="500"
   id="svg2"
   sodipodi:version="0.32"
   inkscape:version="0.43"
   version="1.0"
   sodipodi:docbase="C:\Documents and Settings\David Nelson\Archives\Svg"
   sodipodi:docname="Semaphore Charlie.svg">
  <defs
     id="defs4" />
  <sodipodi:namedview
     id="base"
     pagecolor="#ffffff"
     bordercolor="#666666"
     borderopacity="1.0"
     inkscape:pageopacity="0.0"
     inkscape:pageshadow="2"
     inkscape:zoom="0.5"
     inkscape:cx="277.85308"
     inkscape:cy="238.30965"
     inkscape:document-units="px"
     inkscape:current-layer="layer5"
     showgrid="true"
     inkscape:grid-points="true"
     inkscape:window-width="756"
     inkscape:window-height="540"
     inkscape:window-x="378"
     inkscape:window-y="253" />
  <metadata
     id="metadata7">
    <rdf:RDF>
      <cc:Work
         rdf:about="">
        <dc:format>image/svg+xml</dc:format>
        <dc:type
           rdf:resource="http://purl.org/dc/dcmitype/StillImage" />
      </cc:Work>
    </rdf:RDF>
  </metadata>
  <g
     inkscape:label="Head and Torso"
     inkscape:groupmode="layer"
     id="layer1">
    <path
       sodipodi:type="arc"
       style="opacity:1;fill:#000000;fill-opacity:1;fill-rule:evenodd;stroke:none;stroke-width:2.5;stroke-miterlimit:4;stroke-dasharray:none;stroke-opacity:1"
       id="path7712"
       sodipodi:cx="250"
       sodipodi:cy="200"
       sodipodi:rx="25"
       sodipodi:ry="25"
       d="M 275 200 A 25 25 0 1 1  225,200 A 25 25 0 1 1  275 200 z"
       transform="translate(50,10)" />
    <rect
       style="opacity:1;fill:#000000;fill-opacity:1;fill-rule:evenodd;stroke:none;stroke-width:2.5;stroke-miterlimit:4;stroke-dasharray:none;stroke-opacity:1"
       id="rect7718"
       width="70"
       height="160"
       x="265"
       y="240"
       rx="20"
       ry="21.333334" />
  </g>
  <g
     inkscape:groupmode="layer"
     id="layer4"
     inkscape:label="Left Hand"
     style="display:inline">
    <g
       id="g11911">
      <rect
         style="fill:#000000;fill-opacity:1;fill-rule:evenodd;stroke:none;stroke-width:2.5;stroke-miterlimit:4;stroke-dasharray:none;stroke-opacity:1"
         id="rect8008"
         width="70"
         height="20"
         x="240"
         y="-360"
         rx="10"
         ry="10"
         transform="matrix(4.360635e-25,1,-1,4.360635e-25,0,0)" />
      <rect
         style="fill:#000000;fill-opacity:1;fill-rule:evenodd;stroke:#000000;stroke-width:1;stroke-miterlimit:4;stroke-dasharray:none;stroke-opacity:1"
         id="rect8010"
         width="200"
         height="10"
         x="300"
         y="-355"
         transform="matrix(3.052445e-25,1,-1,6.229479e-25,0,0)" />
      <path
         id="path8014"
         d="M 255,410 L 345,410 L 345,500 L 255,500 L 255,410 z "
         style="fill:#ffff00;fill-opacity:1;fill-rule:evenodd;stroke:none;stroke-width:0.5;stroke-miterlimit:4;stroke-opacity:1" />
      <path
         style="fill:#ff0000;fill-opacity:1;fill-rule:evenodd;stroke:none;stroke-width:0.5;stroke-miterlimit:4;stroke-opacity:1"
         d="M 345,410 L 345,500 L 255,500 L 345,410 z "
         id="path8016" />
      <path
         style="fill:#ffff00;fill-opacity:0;fill-rule:evenodd;stroke:#000000;stroke-width:1;stroke-linejoin:round;stroke-miterlimit:4;stroke-dasharray:none;stroke-opacity:1"
         d="M 255,410 L 345,410 L 345,500 L 255,500 L 255,410 z "
         id="path11836" />
    </g>
  </g>
  <g
     inkscape:groupmode="layer"
     id="layer5"
     inkscape:label="Right Hand"
     style="display:inline">
    <g
       id="g12023">
      <rect
         ry="10.000003"
         rx="10.000003"
         y="-10.000073"
         x="-363.55331"
         height="20.000006"
         width="70.000023"
         id="rect7841"
         style="fill:#000000;fill-opacity:1;fill-rule:evenodd;stroke:none;stroke-width:2.5;stroke-miterlimit:4;stroke-dasharray:none;stroke-opacity:1"
         transform="matrix(-0.707107,-0.707107,0.707107,-0.707107,0,0)" />
      <rect
         y="-5.0000725"
         x="-303.55331"
         height="10.000003"
         width="200.00006"
         id="rect7843"
         style="fill:#000000;fill-opacity:1;fill-rule:evenodd;stroke:#000000;stroke-width:0.9999997;stroke-miterlimit:4;stroke-dasharray:none;stroke-opacity:1"
         transform="matrix(-0.707107,-0.707107,0.707107,-0.707107,0,0)" />
      <path
         style="fill:#ffff00;fill-opacity:1;fill-rule:evenodd;stroke:none;stroke-width:0.5;stroke-miterlimit:4;stroke-opacity:1"
         d="M 69.687615,204.03804 L 6.047985,140.39841 L 69.687615,76.758785 L 133.32725,140.39841 L 69.687615,204.03804 z "
         id="path7847" />
      <path
         id="path7849"
         d="M 6.047985,140.39841 L 69.687615,76.758785 L 133.32725,140.39841 L 6.047985,140.39841 z "
         style="fill:#ff0000;fill-opacity:1;fill-rule:evenodd;stroke:none;stroke-width:0.5;stroke-miterlimit:4;stroke-opacity:1" />
      <path
         id="path11999"
         d="M 69.687615,204.03804 L 6.047985,140.39841 L 69.687615,76.758785 L 133.32725,140.39841 L 69.687615,204.03804 z "
         style="fill:#ffff00;fill-opacity:0;fill-rule:evenodd;stroke:#000000;stroke-width:1;stroke-linejoin:round;stroke-miterlimit:4;stroke-dasharray:none;stroke-opacity:1" />
    </g>
  </g>
</svg>

<svg xmlns="http://www.w3.org/2000/svg" width="600" height="500" version="1">
    <g fill-rule="evenodd">
        <path d="M325 210a25 25 0 1 1-50 0 25 25 0 1 1 50 0z"/>
        <rect width="70" height="160" x="265" y="240" rx="20" ry="21.333"/>
    </g>
    <rect width="70" height="20" x="240" y="-360" fill-rule="evenodd" rx="10" ry="10" transform="rotate(90)"/>
    <path fill-rule="evenodd" stroke="#000" d="M300-355h200v10H300z" transform="rotate(90)"/>
    <path fill="#ff0" fill-rule="evenodd" d="M255 410h90v90h-90v-90z"/>
    <path fill="red" fill-rule="evenodd" d="M345 410v90h-90l90-90z"/>
    <path fill="none" stroke="#000" stroke-linejoin="round" d="M255 410h90v90h-90v-90z"/>
    <g>
        <rect width="70" height="20" x="-363.553" y="-10" fill-rule="evenodd" rx="10" ry="10" transform="rotate(-135)"/>
        <path fill-rule="evenodd" stroke="#000" d="M211.109 218.18L69.688 76.759l7.07-7.071 141.422 141.42z"/>
        <path fill="#ff0" fill-rule="evenodd" d="M69.688 204.038l-63.64-63.64 63.64-63.64 63.64 63.64-63.64 63.64z"/>
        <path fill="red" fill-rule="evenodd" d="M6.048 140.398l63.64-63.64 63.64 63.64H6.047z"/>
        <path fill="none" stroke="#000" stroke-linejoin="round" d="M69.688 204.038l-63.64-63.64 63.64-63.64 63.64 63.64-63.64 63.64z"/>
    </g>
</svg>
